X:1
T:Con afecto y armonía
T:José de Torres y Martinez Bravo [1665-1738]
T:From a printed source in Guatemala Cathedral dated 1729
T:Con afecto y armonía
T:Cantada sola al santísimo
T:Copyright © 
T:Copyright © 
T:Copyright © 
T:Copyright © 
T:Copyright © 
T:Copyright © 
T:Copyright © 
T:Copyright © 
T:Copyright © 
T:Copyright © 
C:José de Torres y Martinez Bravo [1665-1738]
Z:From a printed source in
Z:Guatemala Cathedral dated 1729
Z:Copyright ©
%%score 1 { 2 | 3 }
L:1/8
M:4/4
K:C
V:1 treble nm="Soprano" snm="S."
V:2 treble nm="Continuo" snm="Cont."
V:3 bass 
V:1
"^Recitado" z2 z G c>c de | ed z/ B/B/c/ dd z d/e/ | f3 e ^cc z A/B/ | ^c2 z c/e/ cccd | %4
w: Cau- di- llo\_he- roi- co\_ar-|ma- do, con blan- cas ar- mas de\_es- plen-|do- res ba- ña el vi-|ril, que\_es su tien- da de cam-|
 ed z A dd d>_e | _ee z A c3 B | cB z d _B>B AG | cc z/ G/c/G/ _BA z A | dA A>_B B2 z/ d/^c/d/ | %9
w: pa- ña, in- si- gnia trae pur-|pu- rea en el cos-|ta- do, * que\_el dis- fraz le\_en-|cu- bra, el pro- prio\_a- si- do, me-|mo- ria de que\_a- mor le tie- ne\_he-|
 dA z2 z2 BB | ee z B/e/ cA z/ c/d/e/ | eA z2 A>A Bc | cG z2 || %13
w: ri- do; su ve-|ni- da ap- lau- da mos, que\_en la pa-|les- tra mi- li- tan- te\_es-|ta- mos.|
[K:G][M:3/8]"^Aria. Mediano [Moderato]" z3 | z3 | z3 | z3 | z3 | z3 | z ef | ^G2 A | (B/c/)dc | %22
w: ||||||Con a-|fec- to,\_y|ar- * * mo-|
 (BA)^G | z3 | z3 | z3 | z ef | ^G2 A | (B/c/d)c | BA^G | z cd | (B/A/B)c | (d/c/)de | B3 | z ce | %35
w: ní- * a,||||sus ha-|za- ñas|la\_a- * * le-|grí- * a|re- ve-|ren- * * te|a- * plau- di-|rá,|re- ve-|
 A/G/A/c/d/c/ | B/A/B/d/e/d/ | c/B/c/d/e/=f/ | g2 e | =f2 d | e/d/c/B/A/G/ | (A/c/)GB | c3 | z3 | %44
w: re- * * * * *|||nte ap-|lau- di-|rá, _ _ _ _ _|a- * plau- di-|ra.||
 z3 | z3 | z e=f | ^c2 d | (e=f)d | (ed)^c | z3 | z de | B2 c | (de)c | (dc)B | z cG | %56
w: ||Con a-|fec- to,\_y|ar- * mo-|ní- * a,||sus ha-|za- ñas|la\_a- * le-|grí- * a|re- ve-|
 A/B/c/B/c/A/ | =f/e/d/c/B/A/ | B/c/d/c/d/B/ | e/=f/e/d/c/B/ | c/d/e/d/e/c/ | =f/e/d/c/B/A/ | %62
w: re- * * * * *||||||
 ^G2 A | B2 c | d2 z | (=fe)d | (dc)B | (BA)^G | e3- | e d/c/B/A/ | (BA)^G | A3 | z3 | z3 | z3 | %75
w: nt- e\_a-|plau- di-|rá,|re- * ve-|ren- * te\_a-|plau- * di-|rá,|_ a- * * *|plau- * di-|rá,||||
 z3 | z || cA | d2 d | (dc)(B | AG)F | z3 | z3 | z dB | e2 e | (ed)c | (BA)^G | z3 | z3 | z cA | %90
w: ||pues con|al- ta,|con- * fian-|* * za,|||la\_o- ra-|ción, y|la\_es- * pe-|ran- * za|||sa- cro|
 d/^c/d/A/G/A/ | B/A/B/d/c/d/ | e/d/e/B/A/B/ | c/B/c/e/d/c/ | d/e/d/e/d/e/ | (dc)B | B A2 | B3 | %98
w: a- lie- * * * *|||||* * nto|nos da-|rá,|
 z3 | z3 | z ^dB | (eB)c | (cA)(B | BG)A | z BG | A2 F | G/F/GE | (A/G/A)F | z Bc | ^D2 E | z FG | %111
w: ||pues con|al- * ta|con- * fian-|* * za,|la o-|ra ción,|y _ la\_es- pe-|ra- * * nza,|sa- cro\_a-|lien- to|nos da-|
 A3 | (cB)A | (AG)F | (GF)E |"^Despacio[Adagio]" A3 | z (c/B/A/B/ | G) F2 |"^Al principio" E3 || %119
w: rá,|sa- * cro\_a-|lien- * to|nos _ da-|rá,|nos _ _ _|_ da-|rá.|
[K:C][M:4/4]"^Recitado" ff z/ A/A/B/ cc z2 | c3 c c>c (de) | ^GGGA B2 BA | A2 z/ c/B/A/ d2 z2 | %123
w: E- a, señ- or di- vi- no,|pues la\_o- ri- gi- nal _|cul- pa con tu muer- te mu-|rió, y\_e- res ver- dad,|
 c2 c>B cB z2 | e2 e2 z BBc | dd d>^c dc z2 | ^G2 G>A B3 A | BA z f/f/ ^c2 cd | %128
w: vi- da,\_y ca- mi- no,|sed nos con- tra la\_a-|ctual es- cu- do fuer- te,|pa- ra que de\_es- ta|fuer- te tu- ya sea mi bien,|
 ^A/A/A/B/ (^cB) z2 dB | eB B>=c c2 z/ e/^d/e/ | eB z2 ||"^Aria. Andante" z | z8 | z8 | z8 | %135
w: nues- tra vi- cto- ria, _ tu- yo\_el|triun- fo, el po- der, tu- ya la|Glo- ria.|||||
 z4 z2 z G | c2 c2 c4- | c8- | c4 cd/e/ fe | dG G2 z (e/d/) c_B | (_BA) A2 z (f/e/) dc | %141
w: En|tier- na cal-|||* * ma, lo- * gré la|vi- * da, con- * si- ga\_el|
 (cB) B2 z (g/f/) ed | (dc) c2 z (d/e/) (fd) | B d2 B c G2 c | d G2 d e/d/c/d/ e/c/d/e/ | %145
w: al- * ma, ver _ de- fen-|di- * da, su _ li- *|ber- ta- * * * *||
 d/c/B/c/ d/B/c/d/ e/d/c/d/ e/c/d/e/ | d/c/B/A/ G>c B2 A2 | G4 z4 | z8 | z8 | z4 z2 z G | %151
w: |* * * * d, su li- ber-|tad.|||En|
 d2 d2 d4- | d8- | d4 d (g/f/) ed | ^c2 d2 z (f/e/) df | B2 c2 z (e/d/) ce | A2 B2 z (d/c/) Bd | %157
w: tier- na cal-||* ma, lo- * gré la|vi- da, con- * si- ga\_el|al- ma, ver _ de- fen-|di- da, su _ li- ber-|
 G c2 G Ad d/c/B/A/ | B e2 B c/e/d/e/ f/e/d/c/ | B/d/c/d/ e/d/c/B/ A/c/B/c/ d/c/B/A/ | %160
w: ta- * * * * * * * *|||
 GA/B/ cd/e/ fe/d/ ec | G2 B2 c4- | c8- | cB/A/ GF E2 D2 | C4 || z4 | z8 | z8 | z4 z2 z E | %169
w: * * * * * * * * * d, su|li- ber- ta-||* * * d, su li- ber-|tad.||||No\_el|
 A2 A2 A4- | A4 Afed | (cB) c2 z cde | (AG) A2 z (d/e/) fd | (BA) B2 z (c/d/) ec | %174
w: vi- cio\_a- le-|* ve, cau- ti- ve|cie- * go, del que ser|de- * be tu\_es- * cla- vo|lue- * go, por _ tu pie-|
 Af- f/e/d/c/ Bg- g/f/e/d/ | c (d/c/) BA e4 | z8 | z8 | z BcB c2 A2 | z ^cd=c dc B2 | z ded eB c2 | %181
w: da- * * * * * * * * * * *|d, por _ tu pie- dad.|||No\_el vi- cio\_a- le- ve|cau- ti- ve cie- * go,|al que ser de- be, tu|
 z cBA (G^F)Ee | B2 ^d2 e4- | e4 z e/d/ cB | AGAG AG"^Despacio[Adagio]" A2 | z2 e>^f G2 ^F>E | %186
w: es- cla- vo lue- * go, por|tu pie- da-||* * * * * * d,|por _ tu pie- *|
 E4!D.C.! |] %187
w: dad.|
V:2
 z2 z G c>c de | ed z/ B/B/c/ dd z d/e/ | f3 e ^cc z A/B/ | ^c2 z c/e/ cccd | ed z A dd d>_e | %5
 _ee z A c3 B | cB z d _B>B AG | cc z/ G/c/G/ _BA z A | dA A>_B B2 z/ d/^c/d/ | dA z2 z2 BB | %10
 ee z B/e/ cA z/ c/d/e/ | eA z2 A>A Bc | cG z2 ||[K:G][M:3/8] z3 | z3 | z3 | z3 | z3 | z3 | z3 | %20
 z3 | z3 | z3 | z3 | z3 | z3 | z3 | z3 | z3 | z3 | z3 | z3 | z3 | z3 | z3 | z3 | z3 | z3 | z3 | %39
 z3 | z3 | z3 | z3 | z3 | z3 | z3 | z3 | z3 | z3 | z3 | z3 | z3 | z3 | z3 | z3 | z3 | z3 | z3 | %58
 z3 | z3 | z3 | z3 | z3 | z3 | z3 | z3 | z3 | z3 | z3 | z3 | z3 | z3 | z3 | z3 | z3 | z3 | z || %77
 z2 | z3 | z3 | z3 | z3 | z3 | z3 | z3 | z3 | z3 | z3 | z3 | z3 | z3 | z3 | z3 | z3 | z3 | z3 | %96
 z3 | z3 | z3 | z3 | z3 | z3 | z3 | z3 | z3 | z3 | z3 | z3 | z3 | z3 | z3 | z3 | z3 | z3 | z3 | %115
 z3 | z3 | z3 | z3 ||[K:C][M:4/4] ff z/ A/A/B/ cc z2 | c3 c c>c de | ^GGGA B2 BA | %122
 A2 z/ c/B/A/ d2 z2 | c2 c>B cB z2 | e2 e2 z BBc | dd d>^c dc z2 | ^G2 G>A B3 A | %127
 BA z f/f/ ^c2 cd | ^A/A/A/B/ ^cB z2 dB | eB B>=c c2 z/ e/^d/e/ | eB z2 || z | z8 | z8 | z8 | z8 | %136
 z8 | z8 | z8 | z8 | z8 | z8 | z8 | z8 | z8 | z8 | z8 | z8 | z8 | z8 | z8 | z8 | z8 | z8 | z8 | %155
 z8 | z8 | z8 | z8 | z8 | z8 | z8 | z8 | z8 | z4 || z4 | z8 | z8 | z8 | z8 | z8 | z8 | z8 | z8 | %174
 z8 | z8 | z8 | z8 | z8 | z8 | z8 | z8 | z8 | z8 | z8 | z8 | z4 |] %187
V:3
 C,8 |"^6" B,,4 ^G,,4 |"^7b" ^G,,4"^4x" =G,,4 | G,,8 | F,,8 |"^7b" ^F,,8 |"^b" G,,8 | %7
"^6" E,4 F,2 ^F,2 | ^F,4"^3b" G,4 | A,2 D,2"^6" ^G,4 | ^G,4 A,4 | F,8 | G,2 C,2 || %13
[K:G][M:3/8] A,E=F | ^G,2 A, |"^6x" B,/C/D"^6"C | ^G,/A,/B,A, | D,/E,/=F,C, | D,E,E,, | A,,3 | %20
 z E=F | ^G,2 A, |"^6" D,2 E, | A,/B,/C=F, | G,/A,/B,E, | =F,D,E, | A,3 | z E=F | ^G,2 A, | %29
 D,2 E, | A,,A,=F, | G,"^6"DE | z B,C | z G,A, |"^6" E,2 C, | =F,2 D, | G,2 E, | A,G,=F, | %38
"^6" E,B,C | D,A,B, | C,E,C, | =F,G,G,, | z CE | A,/B,/C=F, | E,/F,/G,E, | =F,G,G,, | C,2 D, | %47
 z"^6x6" E,=F, | ^C,A,,_B,, | G,,2 A,, | D,DE | B,2 C | z G,A, | B,,G,,A,, | =F,,2 G,, | C,E,C, | %56
 =F,2 z | D,=F,D, | G,2 z | E,G,E, | A,2 z | D,=F,D, | z E=F | z ^G,A, | B,CD |"^7b" ^G,2 z | %66
"^5b" ^G,2 z |"^4x" D,2 z | C,"^6"B,,A,, | ^G,,2 A,, | D,E,E,, | A,/B,/C=F, | G,/A,/B,E, | %73
 =F,/G,/A,D, | C,^G,A, | D,E,E,, | !fermata!A,, || A,A,, | F,D,G, | z F,G, | C,2 D, | G,/A,/B,G, | %82
 CDD, | G,B,G, | E,^G,A, | z ^G,A, |"^6" D,2 E, | A,,/B,,/C,A,, | D,E,E,, | A,,A,A,, | F,2 z | %91
 G,2 z | ^G,2 z | A,2 z | F,2 z | z F,G, |"^76" C,3 | B,,/^C,/^D,B,, | E,/F,/G,E, | A,/B,/CA, | %100
"^3x" B,B,,B, |"^6" ^G,E,A, | z F,G, | z E,F, | ^D,B,,E, | z ^C,D, | z B,,C, | z ^C,D, | G,,2 A,, | %109
 z B,C | ^D,2 E, | F,G,A, |"^7b" ^D,2 z | ^D,2 z |"^3" E,3 |"^6" C,3 | A,,3 | E,,3- | E,,3 || %119
[K:C][M:4/4] F,4 E,4 | E,8 |"^4x" D,8 |"^6" C,4"^6" ^F,4 | ^F,4 ^D,4 | ^G,8 | ^G,4 ^E,4 | ^E,8 | %127
 ^F,8 |"^4x" E,4"^6" D,4 |"^6" ^G,,4 A,,4 | B,,2 E,,2 || G, | C2 C2 C2 z/ E,/F,/G,/ | %133
 A,A,A,A, A,2 z/ C,/D,/E,/ | F,F,F,F, F,E,D,C, | G,2 G,,2 C,2 z2 | C,,2 z2 z2 z/ E,/F,/G,/ | %137
 A,A,A,A, A,2 z/ C,/D,/E,/ | F,F,F,F, F,E,D,C, | G,2 G,,2 C,2 E,2 | z F,A,F, D,2"^6" F,2 | %141
 z G,B,G, E,2"^6" G,2 | z A,CA, F,2 D,2 | G,F,G,F,"^6" E,D,E,C, |"^6" B,,A,,B,,G,, C,B,,C,A,, | %145
 B,,A,,B,,G,, C,E,G,C, | B,,A,,B,,C,"^6  5" D,2 D,,2 | G,,2 z D, G,2 G,2 | %148
 G,2 z/ B,,/C,/D,/ E,E,E,E, | E,2 z/ G,,/A,,/B,,/ C,B,,A,,G,, | D,2 D,,2 G,,2 z2 | %151
 G,,4 z2 z/ D,/E,/^F,/ | G,G,G,G, G,2 z/ ^F,/G,/A,/ |"^6" B,B,B,B, B,2"^6" G,2 | %154
 z"^3x" A,/G,/ F,"^6"E, F,2 F,,2 | z G,/F,/ E,"^6"D, E,2 E,,2 | z F,/E,/ D,C,"^6" D,2 D,,2 | %157
 E,2 C,2 F,2 D,2 | G,2 E,2 A,F,D,F, | G,E,C,E, F,D,B,,D, | E,D,E,"^6"C, D,B,,C,F, | %161
 G,2 G,,2 z C/B,/ A,G, | A,G,F,E, F,A,/G,/ F,A, | E,D,E,F, G,2 G,,2 | !fermata!C,2 z"^x" E, || %165
 A,2 A,2 | A,2 z/ C,/D,/E,/ F,F,F,F, | F,2 z/ A,,/B,,/C,/ D,C,B,,A,, | E,2 E,,2 A,,2 z2 | %169
 A,,4 z2 z/ C,/D,/E,/ | F,F,F,F, F,2 ^G,,2 | A,,A,G,F,"^6" E,2 C,2 | z F,A,F, C,2 D,,2 | %173
 z G,B,G, E,2 C,2 | F,2 D,2 G,2 E,2 | A,2 D,2"^3x" E,,2 z/ E,/^F,/^G,/ | %176
 A,A,A,A, A,2 z/ ^G,/A,/B,/ | CCCC C^G,A,D, | E,2"^x" E,,2 z E,"^6"F,E, | F,2 D,2 z ^F,"^6"G,F, | %180
 G,2 E,2 z ^G,"^6"A,G, | A,2 ^D,2 E,2 A,2 |"^43x" B,2 B,,2 E,E/D/ CB, | %183
 CB,A,^G, A,C/B,/ A,!courtesy!=G, | F,E,F,E, ^D,4 | z2 A,,2"^65" B,,4 | E,,4 |] %187

